data/icons/ui/skip-med-symbolic.svg

<?xml version="1.0" encoding="UTF-8" standalone="no"?>
<svg
   height="16px"
   viewBox="0 0 16 16"
   width="16px"
   version="1.1"
   id="svg2"
   sodipodi:docname="skip-med-symbolic.svg"
   inkscape:version="1.3.2 (091e20ef0f, 2023-11-25)"
   xmlns:inkscape="http://www.inkscape.org/namespaces/inkscape"
   xmlns:sodipodi="http://sodipodi.sourceforge.net/DTD/sodipodi-0.dtd"
   xmlns="http://www.w3.org/2000/svg"
   xmlns:svg="http://www.w3.org/2000/svg">
  <defs
     id="defs2" />
  <sodipodi:namedview
     id="namedview2"
     pagecolor="#ffffff"
     bordercolor="#000000"
     borderopacity="0.25"
     inkscape:showpageshadow="2"
     inkscape:pageopacity="0.0"
     inkscape:pagecheckerboard="0"
     inkscape:deskcolor="#d1d1d1"
     inkscape:zoom="8.905126"
     inkscape:cx="17.74259"
     inkscape:cy="24.255693"
     inkscape:window-width="1920"
     inkscape:window-height="1011"
     inkscape:window-x="0"
     inkscape:window-y="0"
     inkscape:window-maximized="1"
     inkscape:current-layer="svg2"
     showgrid="true"
     showguides="false">
    <inkscape:grid
       id="grid1"
       units="px"
       originx="0"
       originy="0"
       spacingx="1"
       spacingy="1"
       empcolor="#0099e5"
       empopacity="0.30196078"
       color="#0099e5"
       opacity="0.14901961"
       empspacing="5"
       dotted="false"
       gridanglex="30"
       gridanglez="30"
       visible="true" />
  </sodipodi:namedview>
  <path
     d="m 7.4,2.034 c -4.042969,0 -6.394,3.513 -6.394,3.513 L 2.391,6.85 c 0,0 2.149625,-2.816 5.009,-2.816 2.054688,0 3.697656,1.294531 4.084375,1.974218 H 10.574219 C 9.242188,6.008218 9,7.262125 9,8.043375 l 6,-0.046875 0.04297,-6 c -1.042969,0 -2.03125,0.523437 -2.03125,1.667968 v 0.929688 l -0.0625,0.0625 C 12.191406,3.566812 10.032812,2.034 7.4,2.034 Z"
     id="path1-29"
     sodipodi:nodetypes="sccscscccsccs" />
  <path
     d="M 5.5,8 C 3.556317,8 2,9.556317 2,11.5 2,13.443683 3.556317,15 5.5,15 7.443683,15 9,13.443683 9,11.5 9,9.556317 7.443683,8 5.5,8 Z M 4.115,9.532116 c 0.154948,0 0.3030599,0.06152 0.4124349,0.170898 L 5.481771,10.6569 6.4355649,9.703014 c 0.10937,-0.10938 0.2574871,-0.170898 0.4124341,-0.170898 0.154948,0 0.30306,0.06152 0.4124354,0.170898 0.2278648,0.227864 0.2278648,0.597005 0,0.82487 l -0.9537935,0.953887 0.9537935,0.953794 c 0.2278648,0.227865 0.2278648,0.597006 0,0.82487 -0.2278644,0.227865 -0.5970044,0.227865 -0.8248695,0 L 5.481771,12.30664 4.5274349,13.260435 c -0.2279289,0.2278 -0.5970049,0.227865 -0.8248699,0 -0.227864,-0.227864 -0.227929,-0.597071 0,-0.82487 L 4.656901,11.481771 3.702565,10.527884 c -0.227917,-0.227811 -0.227864,-0.597006 0,-0.82487 C 3.81194,9.593639 3.960052,9.532116 4.115,9.532116 Z"
     style="opacity:0.4;fill:#000000;fill-opacity:1;stroke-width:0.583334"
     id="path5"
     sodipodi:nodetypes="ssssssccsscccssscssscsss" />
</svg>

<svg xmlns="http://www.w3.org/2000/svg" width="16" height="16"><path d="M7.4 2.034c-4.043 0-6.394 3.513-6.394 3.513L2.391 6.85S4.541 4.034 7.4 4.034c2.055 0 3.698 1.295 4.084 1.974h-.91C9.242 6.008 9 7.262 9 8.043l6-.046.043-6c-1.043 0-2.031.523-2.031 1.667v.93l-.063.063c-.758-1.09-2.916-2.623-5.549-2.623"/><path d="M5.5 8A3.486 3.486 0 0 0 2 11.5C2 13.444 3.556 15 5.5 15S9 13.444 9 11.5 7.444 8 5.5 8M4.115 9.532c.155 0 .303.062.412.171l.955.954.954-.954a.583.583 0 1 1 .824.825l-.953.954.953.954a.583.583 0 1 1-.824.824l-.954-.953-.955.953a.583.583 0 1 1-.824-.824l.954-.954-.954-.954a.583.583 0 0 1 .412-.996" style="opacity:.4;fill:#000;fill-opacity:1;stroke-width:.583334"/></svg>
